X: 1
T: Ad or haboker
C: Mordechai Zeira 1969
L:1/8
O: Israel 
I:choreographer, M. Eskayo
M:4/4
Q:1/4=144
K:Dm
"Dm" D F2 D "Gm" G2 A2 |"Dm" D F2 D "Gm"  GG A2 |"Dm" F A2 F "F" c2 d2|"Dm" A2 G2 "F" cB A2 |\
"Dm" D F2 D "Gm" G2 A2 |"Dm" D F2 D "Gm" GG A2  |"Dm" F A2 F "F" c2 d2|"Dm" A2 G2 "F" A4    |
"Dm" z A2 G "Gm" AB c2 |"Dm" d2 c2 BA G2        |z G2 F "Gm"  GA B2   |"F" c2 B2 "Dm" AG F2 |\
"Dm" D F2 D "Gm"  G2 A2|"Dm" D F2 D "Gm" GG A2  |"Dm" F A2 "F" F c2 d2|"Dm" A2 G2 d4        |
"Dm" z d2 c d4         |"F" z c2 B cB A2        |"Dm" z d2 c d2 e2    |"F" z c2 B cB A2     |\
z"Gm" B2 A B2 d2       |"Dm" z A2 G AG F2       |"Gm" z B2 A B2 d2    |"Dm" A2 G2 A4        |
"Dm" D F2 D "Gm" G2 A2 |"Dm" D F2 D "Gm"  GG A2 |"Dm" F A2 F "F" c2 d2|"Dm" A2 G2 "F" cB A2 |\
"Dm" D F2 D "Gm" G2 A2 |"Dm" D F2 D "Gm"  GG A2 |"Dm" F A2 F "F" c2 d2|"Dm" A2 G2 d4        |



